src/icons/hyperdrive.svg

<svg width="64" height="65" viewBox="0 0 64 65" xmlns="http://www.w3.org/2000/svg"><path d="M42.2485 18.516C44.1815 18.516 45.7485 20.083 45.7485 22.016C45.7485 23.949 44.1815 25.516 42.2485 25.516C40.3155 25.516 38.7485 23.949 38.7485 22.016C38.7485 20.083 40.3155 18.516 42.2485 18.516Z" /><path fill-rule="evenodd" clip-rule="evenodd" d="M28.0464 17.9108C33.7843 12.9133 42.5412 7.87305 54.4623 7.87305L56.4623 9.87305C56.4623 21.7941 51.422 30.551 46.4245 36.2889C46.0282 36.7439 45.6319 37.1803 45.2381 37.5981L46.1452 47.2239L45.5747 48.8192L37.9127 56.5522L34.5206 54.8074L35.7947 47.3574L33.8157 44.3808L32.8812 43.4463L28.612 46.6483L25.9978 46.4625L17.5125 37.9772L17.3267 35.363L20.5286 31.0938L19.955 30.5201L16.978 28.5408L9.52802 29.8149L7.7832 26.4228L15.5162 18.7608L17.1115 18.1903L26.737 19.0974C27.1549 18.7035 27.5913 18.3072 28.0464 17.9108ZM23.3857 33.9509L30.024 40.5892L27.5997 42.4075L21.5675 36.3753L23.3857 33.9509ZM35.6567 40.565L23.7703 28.6786C24.051 28.2618 24.4063 27.7565 24.8367 27.185C26.1194 25.4817 28.0595 23.2039 30.6735 20.9272C33.8689 18.144 38.052 15.3769 43.2704 13.6482C43.549 13.8456 43.8696 14.0917 44.2245 14.3821C45.1329 15.1254 46.188 16.0945 47.2145 17.121C48.241 18.1475 49.2101 19.2025 49.9534 20.111C50.2437 20.4658 50.4897 20.7863 50.6871 21.0649C48.9584 26.2833 46.1913 30.4663 43.4081 33.6618C41.1314 36.2758 38.8536 38.2159 37.1503 39.4986C36.5788 39.929 36.0735 40.2843 35.6567 40.565ZM38.1643 43.6968L39.5655 45.8042L39.8714 47.2487L39.5317 49.2351L42.0751 46.6681L41.5502 41.0984C40.8349 41.7054 40.1634 42.2369 39.5566 42.6939C39.0431 43.0806 38.5749 43.4147 38.1643 43.6968ZM21.6414 24.7787C21.2547 25.2922 20.9205 25.7605 20.6384 26.1711L18.5312 24.77L17.0867 24.4641L15.1003 24.8039L17.6673 22.2604L23.2367 22.7853C22.6298 23.5005 22.0984 24.1719 21.6414 24.7787ZM52.4061 11.9292C52.3237 13.4294 52.1524 14.8699 51.9061 16.2514C51.3209 15.602 50.6873 14.9369 50.0429 14.2926C49.3985 13.6481 48.7333 13.0144 48.0838 12.4292C49.4654 12.1829 50.9059 12.0116 52.4061 11.9292Z" /><path fill-rule="evenodd" clip-rule="evenodd" d="M20.1676 44.1677C18.5671 42.5672 16.6469 42.0344 14.7491 42.6166C13.0569 43.1357 11.7097 44.4457 10.7363 45.7679C9.73247 47.1314 8.94356 48.754 8.44838 50.2882C7.97371 51.7588 7.67712 53.431 7.95352 54.813L9.52245 56.382C10.9045 56.6584 12.5766 56.3619 14.0474 55.8873C15.5816 55.3922 17.2043 54.6034 18.5679 53.5996C19.8902 52.6262 21.2002 51.2789 21.7193 49.5866C22.3014 47.6887 21.7683 45.7684 20.1676 44.1677ZM12.8189 52.0806C12.539 52.1709 12.2768 52.2437 12.0342 52.3014C12.0919 52.0588 12.1647 51.7967 12.255 51.5168C12.6333 50.3447 13.2373 49.1176 13.9575 48.1393C14.7082 47.1197 15.4162 46.5959 15.9223 46.4407C16.2228 46.3485 16.6438 46.3007 17.3392 46.9962C18.0351 47.692 17.9873 48.1132 17.8951 48.4137C17.7399 48.9197 17.2162 49.6277 16.1965 50.3783C15.2183 51.0984 13.9911 51.7024 12.8189 52.0806Z" /></svg>

<svg xmlns="http://www.w3.org/2000/svg" width="64" height="65" viewBox="0 0 64 65"><path d="M42.249 18.516a3.5 3.5 0 1 1 0 7 3.5 3.5 0 0 1 0-7"/><path fill-rule="evenodd" d="M28.046 17.91c5.738-4.997 14.495-10.037 26.416-10.037l2 2c0 11.921-5.04 20.678-10.038 26.416q-.595.682-1.186 1.31l.907 9.625-.57 1.595-7.662 7.733-3.392-1.745 1.274-7.45-1.98-2.976-.934-.935-4.269 3.202-2.614-.186-8.486-8.485-.185-2.614 3.202-4.27-.574-.573-2.977-1.98-7.45 1.275-1.745-3.392 7.733-7.662 1.595-.57 9.626.906q.627-.591 1.31-1.186m-4.66 16.04 6.638 6.64-2.424 1.817-6.033-6.032zm12.27 6.615L23.77 28.679a35 35 0 0 1 1.067-1.494 41.5 41.5 0 0 1 5.837-6.258c3.195-2.783 7.378-5.55 12.596-7.279.279.198.6.444.954.734a42 42 0 0 1 2.99 2.739 42 42 0 0 1 2.74 2.99q.436.534.733.954c-1.729 5.218-4.496 9.401-7.279 12.597a41.5 41.5 0 0 1-6.258 5.837c-.571.43-1.076.785-1.493 1.066m2.508 3.132 1.401 2.107.306 1.445-.34 1.986 2.544-2.567-.525-5.57a44 44 0 0 1-1.993 1.596c-.514.387-.982.72-1.393 1.003M21.641 24.779c-.386.513-.72.982-1.003 1.392l-2.107-1.401-1.444-.306-1.987.34 2.567-2.544 5.57.525a44 44 0 0 0-1.596 1.994m30.765-12.85c-.082 1.5-.254 2.94-.5 4.322a53 53 0 0 0-1.863-1.958 52 52 0 0 0-1.96-1.864 36 36 0 0 1 4.323-.5M20.168 44.168c-1.6-1.6-3.521-2.134-5.419-1.551-1.692.519-3.04 1.829-4.013 3.15-1.004 1.364-1.792 2.987-2.288 4.521-.474 1.47-.77 3.143-.494 4.525l1.568 1.569c1.383.276 3.055-.02 4.525-.495 1.535-.495 3.157-1.284 4.52-2.287 1.323-.974 2.633-2.321 3.152-4.013.582-1.898.05-3.819-1.551-5.42m-7.35 7.913q-.419.135-.784.22.086-.364.221-.784c.378-1.172.982-2.4 1.702-3.378.751-1.02 1.46-1.543 1.965-1.698.3-.093.722-.14 1.417.555s.648 1.117.556 1.418c-.155.506-.679 1.214-1.698 1.964-.979.72-2.206 1.324-3.378 1.703" clip-rule="evenodd"/></svg>
